src/assets/filled/Wallet1.svg

<svg width="24" height="24" viewBox="0 0 24 24"  xmlns="http://www.w3.org/2000/svg">
<path d="M11.94 2.21001L9.52995 7.82001H7.11995C6.71995 7.82001 6.32995 7.85001 5.94995 7.93001L6.94995 5.53001L6.98995 5.44001L7.04995 5.28001C7.07995 5.21001 7.09995 5.15001 7.12995 5.10001C8.28995 2.41001 9.58995 1.57001 11.94 2.21001Z" />
<path d="M18.7301 8.09002L18.7101 8.08002C18.1101 7.91002 17.5001 7.82002 16.8801 7.82002H10.6201L12.8701 2.59002L12.9001 2.52002C13.0401 2.57002 13.1901 2.64002 13.3401 2.69002L15.5501 3.62002C16.7801 4.13002 17.6401 4.66002 18.1701 5.30002C18.2601 5.42002 18.3401 5.53002 18.4201 5.66002C18.5101 5.80002 18.5801 5.94002 18.6201 6.09002C18.6601 6.18002 18.6901 6.26002 18.7101 6.35002C18.8601 6.86002 18.8701 7.44002 18.7301 8.09002Z" />
<path d="M12.52 17.66H12.77C13.07 17.66 13.32 17.39 13.32 17.06C13.32 16.64 13.2 16.58 12.94 16.48L12.52 16.33V17.66Z" />
<path d="M18.29 9.52001C17.84 9.39001 17.37 9.32001 16.88 9.32001H7.11999C6.43999 9.32001 5.79999 9.45001 5.19999 9.71001C3.45999 10.46 2.23999 12.19 2.23999 14.2V16.15C2.23999 16.39 2.25999 16.62 2.28999 16.86C2.50999 20.04 4.20999 21.74 7.38999 21.95C7.61999 21.98 7.84999 22 8.09999 22H15.9C19.6 22 21.55 20.24 21.74 16.74C21.75 16.55 21.76 16.35 21.76 16.15V14.2C21.76 11.99 20.29 10.13 18.29 9.52001ZM13.28 15.5C13.74 15.66 14.36 16 14.36 17.06C14.36 17.97 13.65 18.7 12.77 18.7H12.52V18.92C12.52 19.21 12.29 19.44 12 19.44C11.71 19.44 11.48 19.21 11.48 18.92V18.7H11.39C10.43 18.7 9.63999 17.89 9.63999 16.89C9.63999 16.6 9.86999 16.37 10.16 16.37C10.45 16.37 10.68 16.6 10.68 16.89C10.68 17.31 11 17.66 11.39 17.66H11.48V15.97L10.72 15.7C10.26 15.54 9.63999 15.2 9.63999 14.14C9.63999 13.23 10.35 12.5 11.23 12.5H11.48V12.28C11.48 11.99 11.71 11.76 12 11.76C12.29 11.76 12.52 11.99 12.52 12.28V12.5H12.61C13.57 12.5 14.36 13.31 14.36 14.31C14.36 14.6 14.13 14.83 13.84 14.83C13.55 14.83 13.32 14.6 13.32 14.31C13.32 13.89 13 13.54 12.61 13.54H12.52V15.23L13.28 15.5Z" />
<path d="M10.6799 14.14C10.6799 14.56 10.7999 14.62 11.0599 14.72L11.4799 14.87V13.54H11.2299C10.9199 13.54 10.6799 13.81 10.6799 14.14Z" />
</svg>

<?xml version="1.0" encoding="UTF-8"?>
<svg width="24" height="24" viewBox="0 0 24 24" xmlns="http://www.w3.org/2000/svg">
 <path d="m11.94 2.21-2.41 5.61h-2.41c-0.4 0-0.79 0.03-1.17 0.11l1-2.4 0.04-0.09 0.06-0.16c0.03-0.07 0.05-0.13 0.08-0.18 1.16-2.69 2.46-3.53 4.81-2.89z"/>
 <path d="m18.73 8.09-0.02-0.01c-0.6-0.17-1.21-0.26-1.83-0.26h-6.26l2.25-5.23 0.03-0.07c0.14 0.05 0.29 0.12 0.44 0.17l2.21 0.93c1.23 0.51 2.09 1.04 2.62 1.68 0.09 0.12 0.17 0.23 0.25 0.36 0.09 0.14 0.16 0.28 0.2 0.43 0.04 0.09 0.07 0.17 0.09 0.26 0.15 0.51 0.16 1.09 0.02 1.74z"/>
 <path d="m12.52 17.66h0.25c0.3 0 0.55-0.27 0.55-0.6 0-0.42-0.12-0.48-0.38-0.58l-0.42-0.15v1.33z"/>
 <path d="m18.29 9.52c-0.45-0.13-0.92-0.2-1.41-0.2h-9.76c-0.68 0-1.32 0.13-1.92 0.39-1.74 0.74999-2.96 2.48-2.96 4.49v1.95c0 0.24 0.02 0.47 0.05 0.71 0.22 3.18 1.92 4.88 5.1 5.09 0.23 0.03 0.46 0.05 0.71 0.05h7.8c3.7 0 5.65-1.76 5.84-5.26 0.01-0.19 0.02-0.39 0.02-0.59v-1.95c0-2.21-1.47-4.07-3.47-4.68zm-5.01 5.98c0.46 0.16 1.08 0.5 1.08 1.56 0 0.91-0.71 1.64-1.59 1.64h-0.25v0.22c0 0.29-0.23 0.52-0.52 0.52s-0.52-0.23-0.52-0.52v-0.22h-0.09c-0.96 0-1.75-0.81-1.75-1.81 0-0.29 0.23-0.52 0.52001-0.52 0.29 0 0.52 0.23 0.52 0.52 0 0.42 0.32 0.77 0.71 0.77h0.09v-1.69l-0.76-0.27c-0.46-0.16-1.08-0.5-1.08-1.56 0-0.91 0.71001-1.64 1.59-1.64h0.25v-0.22c0-0.29 0.23-0.52 0.52-0.52s0.52 0.23 0.52 0.52v0.22h0.09c0.96 0 1.75 0.81 1.75 1.81 0 0.29-0.23 0.52-0.52 0.52s-0.52-0.23-0.52-0.52c0-0.42-0.32-0.77-0.71-0.77h-0.09v1.69l0.76 0.27z"/>
 <path d="m10.68 14.14c0 0.42 0.12 0.48 0.38 0.58l0.42 0.15v-1.33h-0.25c-0.31 0-0.55 0.27-0.55 0.6z"/>
</svg>
